assets/img/braze_icons/copy-04.svg

<svg fill="none" height="24" viewBox="0 0 24 24" width="24" xmlns="http://www.w3.org/2000/svg"><g fill="#801ed7"><path clip-rule="evenodd" d="m18.8385 17h-7.677c-.5272 0-.982 0-1.35652-.0306-.39535-.0323-.78857-.1036-1.16695-.2964-.56448-.2876-1.02342-.7465-1.31104-1.311-.1928-.3784-.26411-.7716-.29642-1.167-.0306-.3745-.03058-.8293-.03057-1.3564v-7.67714c-.00001-.52713-.00003-.98193.03057-1.35649.03231-.39534.10362-.78856.29642-1.16694.28762-.56449.74656-1.02343 1.31104-1.31105.37838-.19279.7716-.26411 1.16695-.29641.37452-.030602.82932-.030586 1.35642-.03057h7.6771c.5271-.000016.982-.000032 1.3565.03057.3954.0323.7886.10362 1.167.29641.5645.28762 1.0234.74656 1.311 1.31105.1928.37838.2641.7716.2964 1.16694.0306.37458.0306.82935.0306 1.35651v7.67702c0 .5272 0 .982-.0306 1.3565-.0323.3954-.1036.7886-.2964 1.167-.2876.5645-.7465 1.0234-1.311 1.311-.3784.1928-.7716.2641-1.167.2964-.3745.0306-.8293.0306-1.3565.0306z" fill-rule="evenodd"/><path d="m5.16146 23h7.67704c.5272 0 .982 0 1.3565-.0306.3954-.0323.7886-.1036 1.167-.2964.5645-.2876 1.0234-.7465 1.311-1.311.1928-.3784.2641-.7716.2964-1.167.0275-.3358.0303-.736.0306-1.195h-5.8809c-.4886.0001-1.0184.0002-1.47699-.0372-.51902-.0424-1.20474-.1474-1.91206-.5078-.94081-.4794-1.70571-1.2443-2.18508-2.1851-.36039-.7073-.46534-1.393-.50775-1.912-.03747-.4586-.03735-.9884-.03723-1.4771l.00002-5.88077c-.45904.00028-.85926.00311-1.19504.03054-.39534.0323-.78856.10362-1.16694.29641-.56449.28762-1.02343.74656-1.31105 1.31105-.19279.37838-.26411.7716-.29641 1.16694-.030604.37453-.030586.82923-.03057 1.35643v7.6771c-.000016.5271-.000034.982.03057 1.3565.0323.3954.10362.7886.29641 1.167.28762.5645.74656 1.0234 1.31105 1.311.37838.1928.7716.2641 1.16694.2964.37456.0306.82936.0306 1.35649.0306z"/></g></svg>

<svg width="24" height="24" viewBox="0 0 24 24" fill="none" xmlns="http://www.w3.org/2000/svg">
<path fill-rule="evenodd" clip-rule="evenodd" d="M18.8385 17H11.1615C10.6343 17 10.1795 17 9.80498 16.9694C9.40963 16.9371 9.01641 16.8658 8.63803 16.673C8.07355 16.3854 7.61461 15.9265 7.32699 15.362C7.13419 14.9836 7.06288 14.5904 7.03057 14.195C6.99997 13.8205 6.99999 13.3657 7 12.8386V5.16146C6.99999 4.63433 6.99997 4.17953 7.03057 3.80497C7.06288 3.40963 7.13419 3.01641 7.32699 2.63803C7.61461 2.07354 8.07355 1.6146 8.63803 1.32698C9.01641 1.13419 9.40963 1.06287 9.80498 1.03057C10.1795 0.999968 10.6343 0.999984 11.1614 1H18.8385C19.3656 0.999984 19.8205 0.999968 20.195 1.03057C20.5904 1.06287 20.9836 1.13419 21.362 1.32698C21.9265 1.6146 22.3854 2.07354 22.673 2.63803C22.8658 3.01641 22.9371 3.40963 22.9694 3.80497C23 4.17955 23 4.63432 23 5.16148V12.8385C23 13.3657 23 13.8205 22.9694 14.195C22.9371 14.5904 22.8658 14.9836 22.673 15.362C22.3854 15.9265 21.9265 16.3854 21.362 16.673C20.9836 16.8658 20.5904 16.9371 20.195 16.9694C19.8205 17 19.3657 17 18.8385 17Z" fill="#801ED7"/>
<path d="M5.16146 23H12.8385C13.3657 23 13.8205 23 14.195 22.9694C14.5904 22.9371 14.9836 22.8658 15.362 22.673C15.9265 22.3854 16.3854 21.9265 16.673 21.362C16.8658 20.9836 16.9371 20.5904 16.9694 20.195C16.9969 19.8592 16.9997 19.459 17 19L11.1191 19C10.6305 19.0001 10.1007 19.0002 9.64211 18.9628C9.12309 18.9204 8.43737 18.8154 7.73005 18.455C6.78924 17.9756 6.02434 17.2107 5.54497 16.2699C5.18458 15.5626 5.07963 14.8769 5.03722 14.3579C4.99975 13.8993 4.99987 13.3695 4.99999 12.8808L5.00001 7.00003C4.54097 7.00031 4.14075 7.00314 3.80497 7.03057C3.40963 7.06287 3.01641 7.13419 2.63803 7.32698C2.07354 7.6146 1.6146 8.07354 1.32698 8.63803C1.13419 9.01641 1.06287 9.40963 1.03057 9.80497C0.999966 10.1795 0.999984 10.6342 1 11.1614V18.8385C0.999984 19.3656 0.999966 19.8205 1.03057 20.195C1.06287 20.5904 1.13419 20.9836 1.32698 21.362C1.6146 21.9265 2.07354 22.3854 2.63803 22.673C3.01641 22.8658 3.40963 22.9371 3.80497 22.9694C4.17953 23 4.63433 23 5.16146 23Z" fill="#801ED7"/>
</svg>
